client/public/img/game/shared/obstacles/small_refinery_barrel.svg

<?xml version="1.0" encoding="UTF-8" standalone="no"?>
<!-- Created with Inkscape (http://www.inkscape.org/) -->

<svg
   width="271.022"
   height="271.022"
   viewBox="0 0 71.707905 71.707909"
   version="1.1"
   id="svg23533"
   xmlns="http://www.w3.org/2000/svg"
   xmlns:svg="http://www.w3.org/2000/svg">
  <defs
     id="defs23530" />
  <g
     id="layer1">
    <circle
       style="opacity:1;fill:#191919;fill-opacity:1;stroke-width:0.173434;stroke-linecap:square;stroke-linejoin:bevel"
       id="path864"
       cx="35.853954"
       cy="35.853954"
       r="35.853954" />
    <circle
       style="fill:#4d4d4d;fill-opacity:1;stroke-width:0.161436;stroke-linecap:square;stroke-linejoin:bevel"
       id="path864-3"
       cx="35.853855"
       cy="35.853855"
       r="33.373573" />
    <path
       id="path2391"
       style="opacity:1;fill:#606060;fill-opacity:1;stroke-width:0.418907;stroke-linecap:square;stroke-linejoin:bevel"
       d="M 14.560685,13.113149 35.843733,34.396198 57.12287,13.117062 a 31.166016,31.166016 0 0 0 -42.562185,-0.0039 z m -1.467637,1.495416 a 31.166016,31.166016 0 0 0 0.02401,42.514305 L 34.362207,35.877724 Z m 1.506553,43.99482 a 31.166016,31.166016 0 0 0 42.513437,0.02518 L 35.843734,37.359251 Z M 37.32526,35.877725 58.59442,57.146883 A 31.166016,31.166016 0 0 0 58.57039,14.632588 Z" />
    <path
       style="opacity:1;fill:#373737;fill-opacity:1;stroke-width:1.058;stroke-linecap:square;stroke-linejoin:bevel"
       id="path1541"
       d="m 35.859865,26.548224 a 9.3056326,9.3056326 0 0 1 9.299621,9.311559 9.3056326,9.3056326 0 0 1 -9.311478,9.299703 9.3056326,9.3056326 0 0 1 -9.299784,-9.311396 9.3056326,9.3056326 0 0 1 9.311315,-9.299866" />
  </g>
</svg>

<svg xmlns="http://www.w3.org/2000/svg" width="271.022" height="271.022" viewBox="0 0 71.708 71.708"><circle cx="35.854" cy="35.854" r="35.854" style="opacity:1;fill:#191919;fill-opacity:1;stroke-width:.173434;stroke-linecap:square;stroke-linejoin:bevel"/><circle cx="35.854" cy="35.854" r="33.374" style="fill:#4d4d4d;fill-opacity:1;stroke-width:.161436;stroke-linecap:square;stroke-linejoin:bevel"/><path d="m14.56 13.113 21.284 21.283 21.279-21.279a31.166 31.166 0 0 0-42.562-.004m-1.467 1.496a31.166 31.166 0 0 0 .024 42.514l21.245-21.245ZM14.6 58.603a31.166 31.166 0 0 0 42.513.026l-21.27-21.27Zm22.725-22.725 21.27 21.269a31.166 31.166 0 0 0-.025-42.514Z" style="opacity:1;fill:#606060;fill-opacity:1;stroke-width:.418907;stroke-linecap:square;stroke-linejoin:bevel"/><path d="M35.86 26.548a9.306 9.306 0 0 1 9.3 9.312 9.306 9.306 0 0 1-9.312 9.3 9.306 9.306 0 0 1-9.3-9.312 9.306 9.306 0 0 1 9.312-9.3" style="opacity:1;fill:#373737;fill-opacity:1;stroke-width:1.058;stroke-linecap:square;stroke-linejoin:bevel"/></svg>
